X:1
T:Sinai (Barnby), CM
T:Sinai (Barnby), CM
T:Joseph Barnby (1838-1896)
T:Public Domain Courtesy of the Cyber Hymnal™
C:Joseph Barnby (1838-1896)
Z:Public Domain
Z:Courtesy of the Cyber Hymnal™
%%score ( 1 2 ) ( 3 4 )
L:1/8
Q:1/4=112
M:4/4
K:C
V:1 treble 
V:2 treble 
V:3 bass 
V:4 bass 
V:1
 [EG]2 | [Ec]2 [Ec]2 [EB]2 [Ec]2 | [CA]2 [FA]2 [EG]2 [Ee]2 | [^Fd]2 [Gd]2 [Gc]2 (BA) | %4
 [GB]6 [DG]2 | [EA]2 [DB]2 [Cc]2 [Ec]2 | [Ec]2 [Ad]2 [^Ge]2 e2 | [^Fd]2 [=Fc]2 [Ec]2 [DB]2 x | %8
 [Cc]6 |] %9
V:2
 x2 | x8 | x8 | x6 ^F2 | x8 | x8 | x6 (A=G) | x9 | x6 |] %9
V:3
 [C,G,]2 | [C,G,]2 [A,,A,]2 [E,G,]2 [C,G,]2 | [F,A,]2 [A,C]2 C2 [C,C]2 | %3
 [CD]2 [B,D]2 [A,E]2 [D,D]2 | [G,D]6 [G,B,]2 | [G,C]2 (B,A,) [E,G,]2 [C,G,]2 | %6
 A,2 [F,A,]2 [E,B,]2 [^C,A,]2 | [D,A,]2 [D,_A,]2 G,3 z F, | [C,E,]6 |] %9
V:4
 x2 | x8 | x4 C2 x2 | x8 | x8 | x2 F,2 x4 | A,2 x6 | x4 G,2 G,,2 x | x6 |] %9

